X: 11478
T: Echoes Of Oban
R: jig
M: 6/8
K: Dmajor
a>ff a>df|G>dd B>AA|a>ff a>df|a>ff e2 f|
[1 a>ff a>df|G>dd B>AA|c<af e2 f|e>dd d2:|
[2 A>AA B>BB|G>dd B>AA|c<af e2 f|e>dd d2||

